vendor/shopware/storefront/Resources/app/storefront/dist/assets/icon/default/chart-bar.svg

<svg xmlns="http://www.w3.org/2000/svg" width="24" height="24" viewBox="0 0 24 24">
  <path fill="#758CA3" fill-rule="evenodd" d="M0,1 C0,0.44771525 0.44771525,0 1,0 C1.55228475,0 2,0.44771525 2,1 L2,21 C2,21.5522847 2.44771525,22 3,22 L23,22 C23.5522847,22 24,22.4477153 24,23 C24,23.5522847 23.5522847,24 23,24 L3,24 C1.34314575,24 3.33066907e-16,22.6568542 0,21 L0,1 Z M4,15 C4,14.4477153 4.44771525,14 5,14 C5.55228475,14 6,14.4477153 6,15 L6,19 C6,19.5522847 5.55228475,20 5,20 C4.44771525,20 4,19.5522847 4,19 L4,15 Z M16,6 C16,5.44771525 16.4477153,5 17,5 C17.5522847,5 18,5.44771525 18,6 L18,19 C18,19.5522847 17.5522847,20 17,20 C16.4477153,20 16,19.5522847 16,19 L16,6 Z M12,9 C12,8.44771525 12.4477153,8 13,8 C13.5522847,8 14,8.44771525 14,9 L14,19 C14,19.5522847 13.5522847,20 13,20 C12.4477153,20 12,19.5522847 12,19 L12,9 Z M8,12 C8,11.4477153 8.44771525,11 9,11 C9.55228475,11 10,11.4477153 10,12 L10,19 C10,19.5522847 9.55228475,20 9,20 C8.44771525,20 8,19.5522847 8,19 L8,12 Z M20,3 C20,2.44771525 20.4477153,2 21,2 C21.5522847,2 22,2.44771525 22,3 L22,19 C22,19.5522847 21.5522847,20 21,20 C20.4477153,20 20,19.5522847 20,19 L20,3 Z"/>
</svg>

<svg xmlns="http://www.w3.org/2000/svg" width="24" height="24" viewBox="0 0 24 24"><path fill="#758CA3" fill-rule="evenodd" d="M0 1c0-.5523.4477-1 1-1s1 .4477 1 1v20c0 .5523.4477 1 1 1h20c.5523 0 1 .4477 1 1s-.4477 1-1 1H3c-1.6569 0-3-1.3431-3-3V1zm4 14c0-.5523.4477-1 1-1s1 .4477 1 1v4c0 .5523-.4477 1-1 1s-1-.4477-1-1v-4zm12-9c0-.5523.4477-1 1-1s1 .4477 1 1v13c0 .5523-.4477 1-1 1s-1-.4477-1-1V6zm-4 3c0-.5523.4477-1 1-1s1 .4477 1 1v10c0 .5523-.4477 1-1 1s-1-.4477-1-1V9zm-4 3c0-.5523.4477-1 1-1s1 .4477 1 1v7c0 .5523-.4477 1-1 1s-1-.4477-1-1v-7zm12-9c0-.5523.4477-1 1-1s1 .4477 1 1v16c0 .5523-.4477 1-1 1s-1-.4477-1-1V3z"/></svg>
